X:6918
T:Have You Any More On't. HA08
M:4/4
L:1/8
S:Henry Atkinson MS,Hartburn,Northumberland,1694/5 transcribed John Stokoe 1883
Z:vmp.Cherri Graebe
K:C major
G3AG2E2|D2C2A4|G2ABc2GE|G4c4||c2e2-e2de|fedcd2G2|
c2e2-e2(de)|!fedc efge|fgag bafe|fedcd2cd|e2deg2GE|G4c4||
